!!! OTL: Berkowitz501
!!! Chapter: 1
!!! Section: IV
!!! Page: 125
!!! Mode: 
!!! Encoder: DJB
**kern
*staff1
*I"Piano
=1-
*clefG2
*k[f#]
*G:
*M4/4
4g/
4d/
4cc#\
4dd\
=2
8.a#/L
16b/Jk
8.a#/L
16b/Jk
12cc\L
12b\
12a#\J
8b/L
8g/J
=3
4e/
4B/
4a#/
4b\
=4
12cc\L
12b\
12a\J
8.b\L
16b\Jk
2ee\
=5
4dd\
4b\
4e-/
4d/
=6
4dd\
4b\
4fn/
4e/
=7
!!linebreak:original
12r
12g/L
12g#/J
12f#/L
12g#/
12a/J
12g#/L
12a/
12b/J
12a\L
12b\
12cc\J
=8
12dd\L
12cc\
12b\J
8.ee\L
16ee\Jk
2a/
=9
4cc\
4a/
4e/
4d/
=10
4cc\
4a/
4c#/
4d/
=11
12e/L
12f#/
12g/J
8f#/L
8g/J
12a\L
12b\
12cc\J
8b\L
8cc\J
=12
4dd\
4dd#\
2ee\
=13
!!linebreak:original
8.cc#\L
16dd\Jk
8.dd\L
16dd\Jk
12ccn\L
12b\
12a\J
8b/L
8a/J
=14
12c#/L
12d/
12e/J
8.d/L
16d/Jk
2g/
==
*-
